X:16
T:Chips Off The Block
C:Bob McQuillen
S:Bernie Waugh
R:Reel
M:4/4
L:1/8
K:D
|:FG|\
"D"Adfd "G"edBd|"D"ABAF D2DE|"Bm"FABc "F#m"dcBA|"Bm"FB2AB2FVG|
"D"Adfd "G"edBd|"D"ABAF DEFA|"Bm"BdBd "A"ABcA|"D"d2~dcd2:|
|:(3ABc|\
"G"d2dA BABc|"A"dBAF DFFA|"Bm"ABBA "A"FEFA|"Bm"B2B,B,B,2DE|
"F#m"FABA GABc|"G"defd edBd|"A"AdcB AGFE|"D"~F2D2D2:|

